src/assets/selectIcons/varie_10.svg

<svg xmlns="http://www.w3.org/2000/svg" viewBox="0 0 512 512" style="height: 512px; width: 512px;"><path d="M0 0h512v512H0z" fill="#000" fill-opacity="1"></path><g class="" transform="translate(0,0)" style=""><path d="M219.3 123.9c-64.4 12.5-137.27 28.9-186.92 42.7-5.23 2.3-8.42 6.1-9.06 10.4-.41 2.9.11 6.6 2.98 11.3 118.4 72.6 268.9 33.7 391.1-11.6 14-4.9 16.5 13.3 6.2 16.8-118.6 44.1-268 84.5-391.87 18.6-15.34 11.6-17.16 20.6-15.62 28.3 1.37 6.8 6.95 13.5 12.33 17.6 13.69 9 29.38 18 43.21 24.7 10.06 4.9 20.3 9.4 28.85 12.7 27.2 10.1 18 26.4-6.55 16.8-9.13-3.6-19.7-8.2-30.13-13.3-13.72-6.9-26.41-13.3-38.33-21.1-6.22 3.5-8.84 9.2-9.11 16.7.79 18.2 10.09 24.2 23.14 34.9 7.2 5.1 16.09 10.5 25.2 15.5 9.6 5.3 19.45 10.1 27.75 13.6 20.53 7.8 9.13 22.4-6.94 16.6-9.09-3.8-19.4-8.9-29.5-14.4-10.1-5.6-19.97-11.6-28.17-17.5-2.95-2.1-5.66-4.1-8.13-6.2-2.54 1.9-3.53 5.3-3.55 7.8-.11 5.2 3.16 12.3 5.24 14.3 56.7 52.5 153.28 56.2 246.38 39.4 93.1-16.8 182-53.8 219.6-76.6h.1l.1-.1c3-1.7 3.9-4.2 2.5-10.4-1.4-5.6-5.7-12.9-12.8-19-43.5 15.1-107.5 38.7-175.9 54-74.9 16.7-154.1 23.4-214.75-5.6-9.47-4.8-8.93-19.5 5.62-13.8 54.03 25.8 132.03 18.1 205.23 1.8 70.2-15.6 137.1-40.8 181-55.9 5.7-6.6 8-11.2 8-15-.1-4.3-3.5-11.4-14.2-22.5-123.8 37.8-263.7 85.5-378.2 40.3-14.23-6.7-6.77-21.9 6.7-16.8 108.7 43 250.4-5.8 377.2-44.1 12.4-12.8 17.6-21.8 18.3-26.8.6-7.9-7.1-13.4-12.1-17.1h-.1c-39.1-28.2-71.5-49.2-130.2-66.4-45.1 1.5-93.6 11.5-134.6 19.4z" fill="#fff" fill-opacity="1"></path></g></svg>

<?xml version="1.0" encoding="UTF-8" standalone="no"?>
<!DOCTYPE svg PUBLIC "-//W3C//DTD SVG 1.1//EN" "http://www.w3.org/Graphics/SVG/1.1/DTD/svg11.dtd">
<svg width="100%" height="100%" viewBox="0 0 512 512" version="1.1" xmlns="http://www.w3.org/2000/svg" xmlns:xlink="http://www.w3.org/1999/xlink" xml:space="preserve" xmlns:serif="http://www.serif.com/" style="fill-rule:evenodd;clip-rule:evenodd;stroke-linejoin:round;stroke-miterlimit:2;">
    <rect x="0" y="0" width="512" height="512" style="fill-rule:nonzero;"/>
    <g>
        <path d="M219.3,123.9C154.9,136.4 82.03,152.8 32.38,166.6C27.15,168.9 23.96,172.7 23.32,177C22.91,179.9 23.43,183.6 26.3,188.3C144.7,260.9 295.2,222 417.4,176.7C431.4,171.8 433.9,190 423.6,193.5C305,237.6 155.6,278 31.73,212.1C16.39,223.7 14.57,232.7 16.11,240.4C17.48,247.2 23.06,253.9 28.44,258C42.13,267 57.82,276 71.65,282.7C81.71,287.6 91.95,292.1 100.5,295.4C127.7,305.5 118.5,321.8 93.95,312.2C84.82,308.6 74.25,304 63.82,298.9C50.1,292 37.41,285.6 25.49,277.8C19.27,281.3 16.65,287 16.38,294.5C17.17,312.7 26.47,318.7 39.52,329.4C46.72,334.5 55.61,339.9 64.72,344.9C74.32,350.2 84.17,355 92.47,358.5C113,366.3 101.6,380.9 85.53,375.1C76.44,371.3 66.13,366.2 56.03,360.7C45.93,355.1 36.06,349.1 27.86,343.2C24.91,341.1 22.2,339.1 19.73,337C17.19,338.9 16.2,342.3 16.18,344.8C16.07,350 19.34,357.1 21.42,359.1C78.12,411.6 174.7,415.3 267.8,398.5C360.9,381.7 449.8,344.7 487.4,321.9L487.5,321.9L487.6,321.8C490.6,320.1 491.5,317.6 490.1,311.4C488.7,305.8 484.4,298.5 477.3,292.4C433.8,307.5 369.8,331.1 301.4,346.4C226.5,363.1 147.3,369.8 86.65,340.8C77.18,336 77.72,321.3 92.27,327C146.3,352.8 224.3,345.1 297.5,328.8C367.7,313.2 434.6,288 478.5,272.9C484.2,266.3 486.5,261.7 486.5,257.9C486.4,253.6 483,246.5 472.3,235.4C348.5,273.2 208.6,320.9 94.1,275.7C79.87,269 87.33,253.8 100.8,258.9C209.5,301.9 351.2,253.1 478,214.8C490.4,202 495.6,193 496.3,188C496.9,180.1 489.2,174.6 484.2,170.9L484.1,170.9C445,142.7 412.6,121.7 353.9,104.5C308.8,106 260.3,116 219.3,123.9Z" style="fill:rgb(174,166,166);fill-rule:nonzero;"/>
    </g>
</svg>
